X:81
T:F-Three Hoe Down
R:Hoedown
C:P Slater
S:Orig
M:2/4
L:1/8
K:D
|: (3DDD FA | BA FA | (3DDD FA | BAE2 | (3DDD FA | BA FA | d>A B>A | EF D2:|
|: (3ddd dA | BA FA | (3ddd df | ed B2 | (3ddd dA | BA FA | f>d e>c | d>B AF:|
